images/clear-input.svg

<?xml version="1.0" encoding="utf-8"?>
<!-- Generated by IcoMoon.io -->
<!DOCTYPE svg PUBLIC "-//W3C//DTD SVG 1.1//EN" "http://www.w3.org/Graphics/SVG/1.1/DTD/svg11.dtd">
<svg version="1.1" xmlns="http://www.w3.org/2000/svg" xmlns:xlink="http://www.w3.org/1999/xlink" width="30" height="30" viewBox="0 0 30 30">
<g>
	<line stroke-width="1" x1="" y1="" x2="" y2="" stroke="#449FDB" opacity=""></line>
</g>
	<path d="M21.757 22.507h-11.248c-1.19 0-2.237-0.567-2.924-1.43l-0.010 0.011-0.108-0.155c-0.033-0.045-0.067-0.091-0.097-0.138l-4.102-5.796 4.307-6.086 0.018 0.017c0.687-0.859 1.731-1.42 2.917-1.42h11.248c2.070 0 3.75 1.679 3.75 3.75v7.498c-0.001 2.069-1.681 3.749-3.751 3.749zM17.474 15.031c-0.025-0.027-0.040-0.031-0.057-0.041 0.020-0.007 0.042-0.013 0.073-0.046 0.004-0.003 0.007-0.006 0.012-0.009l2.293-2.292c-0.175-0.689-0.425-1.314-0.73-1.857l-2.922 2.922-2.933-2.934c-0.308 0.541-0.558 1.163-0.733 1.85l2.325 2.324-0.003 0.002c0.026 0.028 0.040 0.032 0.057 0.042-0.020 0.006-0.040 0.013-0.073 0.045-0.004 0.004-0.007 0.007-0.011 0.010l-2.302 2.303c0.173 0.695 0.423 1.324 0.731 1.871l2.93-2.93 2.934 2.934c0.309-0.544 0.558-1.174 0.732-1.866l-2.325-2.324 0.002-0.004z" fill="#000000"></path>
</svg>

<?xml version="1.0" encoding="UTF-8" standalone="no"?>
<!-- Created with Inkscape (http://www.inkscape.org/) -->

<svg
   xmlns:dc="http://purl.org/dc/elements/1.1/"
   xmlns:cc="http://creativecommons.org/ns#"
   xmlns:rdf="http://www.w3.org/1999/02/22-rdf-syntax-ns#"
   xmlns:svg="http://www.w3.org/2000/svg"
   xmlns="http://www.w3.org/2000/svg"
   xmlns:inkscape="http://www.inkscape.org/namespaces/inkscape"
   version="1.1"
   width="30"
   height="30"
   viewBox="0 0 30 30"
   id="svg2">
  <metadata
     id="metadata10">
    <rdf:RDF>
      <cc:Work
         rdf:about="">
        <dc:format>image/svg+xml</dc:format>
        <dc:type
           rdf:resource="http://purl.org/dc/dcmitype/StillImage" />
      </cc:Work>
    </rdf:RDF>
  </metadata>
  <defs
     id="defs8" />
  <path
     d="M 21.757,22.507 H 10.51 c -1.19,0 -2.238,-0.567 -2.925,-1.43 l -0.01,0.01 -0.108,-0.154 C 7.434,20.888 7.4,20.843 7.37,20.795 L 3.268,15 7.575,8.913 7.593,8.93 C 8.28,8.07 9.323,7.51 10.51,7.51 h 11.248 c 2.07,0 3.75,1.68 3.75,3.75 v 7.498 c 0,2.07 -1.68,3.75 -3.75,3.75 z m -4.283,-7.476 c -0.025,-0.02 -0.04,-0.03 -0.057,-0.04 0.02,0 0.042,-0.01 0.073,-0.04 l 0.012,-0.01 2.293,-2.29 c -0.175,-0.69 -0.425,-1.31 -0.73,-1.86 l -2.922,2.92 -2.933,-2.93 c -0.308,0.54 -0.558,1.166 -0.733,1.85 l 2.325,2.327 H 14.8 c 0.024,0.03 0.04,0.033 0.055,0.043 -0.02,0.005 -0.04,0.012 -0.073,0.044 l -0.01,0.01 -2.303,2.304 c 0.17,0.697 0.42,1.326 0.73,1.87 l 2.93,-2.93 2.93,2.937 c 0.31,-0.543 0.56,-1.173 0.73,-1.865 l -2.33,-2.325 0.003,-0.003 z"
     inkscape:connector-curvature="0"
     id="path4" />
</svg>
